icons/svg/24x24/navigation/outline.svg

<svg xmlns="http://www.w3.org/2000/svg" width="24" height="24" viewBox="0 0 24 24">
  <path fill-rule="evenodd" d="M15,2 L10,9 L14,9 L14,13 C14,13.552 13.552,14 13,14 L8,14 C6.346,14 5,15.346 5,17 L5,21 C5,21.553 5.447,22 6,22 C6.553,22 7,21.553 7,21 L7,17 C7,16.448 7.448,16 8,16 L13,16 C14.654,16 16,14.654 16,13 L16,9 L20,9 L15,2 Z"/>
</svg>

<svg width="24" height="24" fill="none" xmlns="http://www.w3.org/2000/svg">
  <path fill-rule="evenodd" clip-rule="evenodd" d="M15 2l-5 7h4v4a1 1 0 01-1 1H8c-1.654 0-3 1.346-3 3v4a1 1 0 102 0v-4a1 1 0 011-1h5c1.654 0 3-1.346 3-3V9h4l-5-7z" fill="#000"/>
</svg>
